public/img/participation-4.svg

<svg width="112" height="103" viewBox="0 0 112 103" fill="none" xmlns="http://www.w3.org/2000/svg">
<path d="M0 23H80V29.6667H0V23Z" fill="#FFD100"/>
<path d="M3.33594 79.6667C3.33594 80.5507 3.68713 81.3986 4.31225 82.0237C4.93737 82.6488 5.78522 83 6.66927 83H36.6693V89.6667H30.0026V96.3333H50.0026V89.6667H43.3359V83H73.3359C74.22 83 75.0678 82.6488 75.693 82.0237C76.3181 81.3986 76.6693 80.5507 76.6693 79.6667V33H3.33594V79.6667ZM26.6693 69.6667C24.8183 69.6678 22.9874 69.2821 21.2943 68.5342L27.613 58H39.8951C39.4892 61.2216 37.9217 64.1844 35.4866 66.3324C33.0516 68.4804 29.9163 69.666 26.6693 69.6667ZM53.3359 76.3333C52.6767 76.3333 52.0322 76.1378 51.484 75.7716C50.9359 75.4053 50.5086 74.8847 50.2563 74.2756C50.004 73.6665 49.938 72.9963 50.0667 72.3497C50.1953 71.7031 50.5127 71.1091 50.9789 70.643C51.4451 70.1768 52.039 69.8593 52.6856 69.7307C53.3322 69.6021 54.0025 69.6681 54.6115 69.9204C55.2206 70.1727 55.7412 70.5999 56.1075 71.1481C56.4738 71.6963 56.6693 72.3407 56.6693 73C56.6693 73.884 56.3181 74.7319 55.693 75.357C55.0678 75.9821 54.22 76.3333 53.3359 76.3333ZM63.3359 76.3333C62.6767 76.3333 62.0322 76.1378 61.484 75.7716C60.9359 75.4053 60.5086 74.8847 60.2563 74.2756C60.0041 73.6665 59.938 72.9963 60.0667 72.3497C60.1953 71.7031 60.5127 71.1091 60.9789 70.643C61.4451 70.1768 62.039 69.8593 62.6856 69.7307C63.3322 69.6021 64.0025 69.6681 64.6115 69.9204C65.2206 70.1727 65.7412 70.5999 66.1075 71.1481C66.4738 71.6963 66.6693 72.3407 66.6693 73C66.6693 73.884 66.3181 74.7319 65.693 75.357C65.0678 75.9821 64.22 76.3333 63.3359 76.3333ZM66.6693 66.3333H53.3359V59.6667H66.6693V66.3333ZM66.6693 56.3333H50.0026V49.6667H66.6693V56.3333ZM46.6693 39.6667H66.6693V46.3333H46.6693V39.6667ZM43.3359 69.6667C43.9952 69.6667 44.6397 69.8622 45.1878 70.2284C45.736 70.5947 46.1632 71.1153 46.4155 71.7244C46.6678 72.3335 46.7338 73.0037 46.6052 73.6503C46.4766 74.2969 46.1591 74.8908 45.693 75.357C45.2268 75.8232 44.6328 76.1407 43.9862 76.2693C43.3396 76.3979 42.6694 76.3319 42.0603 76.0796C41.4512 75.8273 40.9306 75.4001 40.5644 74.8519C40.1981 74.3037 40.0026 73.6593 40.0026 73C40.0026 72.1159 40.3538 71.2681 40.9789 70.643C41.604 70.0179 42.4519 69.6667 43.3359 69.6667ZM26.6693 43C29.9163 43.0007 33.0516 44.1863 35.4866 46.3343C37.9217 48.4823 39.4892 51.4451 39.8951 54.6667H27.3597L18.4959 45.8029C20.8314 43.9829 23.7084 42.9963 26.6693 43ZM16.1389 48.16L24.5705 56.5917L18.4355 66.8167C15.6639 64.6423 13.8662 61.4588 13.4358 57.9624C13.0054 54.4661 13.9773 50.9416 16.1389 48.16Z" fill="#FFD100"/>
<path d="M112 13.1551L111.965 13.125L112 13.0849L111.098 12.3221L104.792 6.5215C104.792 6.5215 104.681 6.63691 104.498 6.80752L104.331 6.98816C102.893 8.31789 98.2832 12.1666 92.8735 12.2419C92.757 12.2419 92.6404 12.2419 92.5239 12.2419C89.6772 11.9358 86.9015 10.4204 84.0852 7.6154C79.4099 2.93876 74.2078 0.414772 68.6107 0.0785763C68.4537 0.0785763 68.2966 0.0785763 68.1447 0.0785763C67.3027 0.00463296 66.4568 -0.0171521 65.612 0.0133455C57.1834 0.35456 50.9227 5.95448 48.7953 8.11216C48.3394 8.51861 48.0658 8.80964 48.0051 8.85982L48.0355 8.88993C48.0262 8.9068 48.0142 8.92206 48 8.93509L48.9016 9.68777L55.2079 15.4934L55.5017 15.2024L55.6689 15.0217C57.1023 13.687 61.7168 9.8383 67.1266 9.76805C67.2431 9.76805 67.3545 9.76805 67.471 9.76805C70.3228 10.0741 73.0935 11.5895 75.9098 14.3945C80.5901 19.0511 85.782 21.5751 91.3792 21.9213C91.5311 21.9213 91.6882 21.9213 91.8452 21.9213C92.6872 21.9955 93.5331 22.0172 94.3778 21.9865C102.806 21.6453 109.067 16.0504 111.195 13.8927C111.635 13.4712 111.914 13.1852 111.97 13.125" fill="#EFC825"/>
</svg>

<svg width="112" height="103" fill="none" xmlns="http://www.w3.org/2000/svg"><path d="M0 23h80v6.667H0V23zm3.336 56.667A3.333 3.333 0 006.669 83h30v6.667h-6.666v6.666h20v-6.666h-6.667V83h30a3.334 3.334 0 003.333-3.333V33H3.336v46.667zm23.333-10a13.283 13.283 0 01-5.375-1.133L27.613 58h12.282A13.333 13.333 0 0126.67 69.667zm26.667 6.666a3.334 3.334 0 110-6.668 3.334 3.334 0 010 6.668zm10 0a3.334 3.334 0 110-6.668 3.334 3.334 0 010 6.668zm3.333-10H53.336v-6.666h13.333v6.666zm0-10H50.003v-6.666h16.666v6.666zm-20-16.666h20v6.666h-20v-6.666zm-3.333 30a3.334 3.334 0 110 6.667 3.334 3.334 0 010-6.667zM26.669 43a13.333 13.333 0 0113.226 11.667H27.36l-8.864-8.864A13.27 13.27 0 0126.669 43zm-10.53 5.16l8.431 8.432-6.134 10.225a13.323 13.323 0 01-2.297-18.657z" fill="#FFD100"/><path d="M112 13.155l-.035-.03.035-.04-.902-.763-6.306-5.8s-.111.115-.294.286l-.167.18c-1.438 1.33-6.048 5.179-11.457 5.254h-.35c-2.847-.306-5.623-1.822-8.439-4.627C79.41 2.94 74.208.415 68.611.08h-.466a20.499 20.499 0 00-2.533-.066c-8.429.342-14.69 5.941-16.817 8.1-.456.406-.73.697-.79.747l.03.03a.178.178 0 01-.035.045l.902.753 6.306 5.805.294-.29.167-.181c1.433-1.335 6.048-5.184 11.458-5.254h.344c2.852.306 5.623 1.821 8.439 4.627 4.68 4.656 9.872 7.18 15.47 7.526h.465c.842.075 1.688.096 2.533.066 8.428-.342 14.689-5.937 16.817-8.094.44-.422.719-.708.775-.768" fill="#EFC825"/></svg>
